X:79
T:La Lodoiska. GS.079
M:2/4
L:1/16
Q:1/4=70
C:Rodolphe Kreutzer
S:George Spencer m/s, Leeds,1831
R:.Country-dance
O:tEngland
A:Leeds
N:Part of â€˜The Lancers Quadrilleâ€™/ cont.. â€˜1831â€™ written on the stave
N:after the last double bar.. Grace note â€˜Eâ€™sâ€™ in the C music are
N:naturals.
H:1831
Z:vmp.Cherri Graebe
K:Bb major
â€œ^pâ€F2 | â€œ_See noteâ€ B>BB>B B2B2 | B3F G>AB>c |\
â€œcresâ€d>dd>d d2d2 | d3A B>cd>e |!
â€œ^fâ€f>ff>f f2b2 | f>ed>e f2b2 | f2de gfed | d4c2 ||!
â€œ^pâ€F2 | B2B2 {B}AGAF | B2B2 {B} AGAF | B2BA edcB |\
A>Bc>d c>FG>A |!
B2B2 {B} A>GA>F |B2B2 {B} A>GA>F | B2Bd ceAc | B6 ||!
B2 | A2{=e}f2{e}f2{e}f2 | f>ed>c B>cd>B | A>BG>A F>GA>F |\
B>AB>c d>cd>B | !
A>FA>c {=e} f2f2 | fedc B2{a}b2 | B2{a}b2 f>ed>c | B4b4 |]

